X:396
L:1/8
M:6/8
K:Bb
 F | F2 F F>GA | B2 B B2 d | e2 c d2 B |{d} c2 B G2 B | F2 F F>GA | B2 B B2 d | edB c2 d | 
 !fermata!B3 B2 !fermata!G | F2 F F2 A | B3 B2 d | e3 d3 | c2 B G2 B | F2 F F2 A | B3 B3 d | 
 f2 e Bcd | B3 B2 ||

